X:1
T:B. D. Ackley
T:James Rowe
T:Faith Will Bring the Blessing
%%score { ( 1 2 ) | ( 3 4 ) }
L:1/8
M:4/4
K:Db
V:1 treble 
V:2 treble 
V:3 bass 
V:4 bass 
V:1
{/x} FG | A2 A2 =GAdA | c2 B2 B2 Ad | c2 c2 cBAG | B2 A2 A2 FG | A2 A2 =GAdA | c2 B2 B4 | %7
w: If you|need up\- lift\- ing, if you|need a song, Strength to|help your soul to tri\- umph|o\- ver wrong, Put your|faith in Je\- sus, He is|true and strong;|
w: In some|hour un\- guard\- ed, if the|foe as\- sail, Tho' you|feel your weak\- vness, let not|cour\- age fail; Trust in|Je\- sus only and you shall|pre\- vail; Faith|
w: On the|Lord de\- pend\- ing, sing a\-|long the way, Naught can|ev\- er harm you if He|is your stay; Lean u-|on His pro- mise till the|bet- ter day;|
 eB=AB ddcB | A4- A2 [Gc][Ec] |"^Chorus" d3 c edAF | A2 =G2 _G4 | c3 d ecBA | %12
w: Faith will bring the bless\- ing ev\- 'ry|time. * * *|Faith will bring the bless\- ing|ev\- 'ry time,|Tho' your faith be sim\- ple|
w: |||||
w: |||||
 B2 c2[Q:1/4=72]"^Adagio" !fermata!d2[Q:1/4=112]"^Moderato" FG | A=GBA d2 cd | edA=A B4 | %15
w: or sub\- lime; For the|Sav- ior knows the heart, Ev\- 'ry|need He will im\- part;|
w: |||
w: |||
 eB=AB dcBc | d4 d2 |] %17
w: Faith will bring the bless\- ing ev- 'ry|time. *|
w: ||
w: ||
V:2
 DE | F2 F2 =EFFF | A2 G2 G2 GG | G2 G2 GGFE | G2 F2 F2 DE | F2 F2 =EFFF | A2 G2 G4 | %7
w: |||||||
w: |||||||
 =GG^FG _GGGE | EDEF G2 z2 | F3 F FFFD | D2 D2 C4 | G3 F GGGG | =G2 _G2 F2 DE | F=EFF F2 FF | %14
w: |||||||
w: |yes, ev- 'ry time. *||||||
 FFFF G4 | =GG^F_G GGGG | F2 GG F2 |] %17
w: |||
w: ||ev- 'ry time.. *|
V:3
 A,A, | D2 D2 DDA,D | D2 D2 D2 DB, | A,2 E2 EDCC | D2 D2 D2 A,A, | D2 D2 DDA,D | D2 D2 D4 | %7
 DDCD B,GED | CB,CD E2 z2 | A,3 A, A,A,DA, | B,2 B,2 A,4 | E3 D CEDC | D2 E2 D2 A,A, | %13
 DDDD A,2 A,A, | A,A,DD D4 | DEEE EEDA, | A,2 B,B, A,2 |] %17
V:4
 D,D, | D,2 D,2 D,D,D,D, | G,2 G,2 G,2 G,G, | A,2 A,2 A,A,A,A, | D,2 D,2 D,2 D,D, | %5
 D,2 D,2 D,D,D,D, | G,2 G,2 G,4 | E,E,E,E, E,E,E,E, | A,4 [A,,A,][G,,G,][F,,F,][E,,E,] | %9
 D,3 D, D,D,D,D, | F,2 =E,2 _E,4 | A,3 A, A,A,A,A, | E,2 A,2 D,2 D,D, | D,D,D,D, D,2 D,D, | %14
 D,D,D,D, G,4 | E,E,E,E, A,A,A,A, | D,4- D,2 |] %17

